X:5937
T:Seneca Square Dance
O:england
M:4/4
K:G
P:A
D2G2 ||:B4 B3A |d2B3AG2 |B4 B3B |A2G3ED2
|B4 B3A |d2B3AG2 |ABAG E2F2 |G4 D2G2 :||
P:B
B2d2 ||:g4 g3g |d2B4d2 |g4 g3a |b2e6
|gaba g2e2 |d4 BAG2 |ABAG E2F2 |G4 B2d2:|


